React/src/assets/images/otherSkills/console.svg

<svg width="130" height="130" viewBox="0 0 130 130" fill="none" xmlns="http://www.w3.org/2000/svg">
<path d="M108.333 102.916V37.9164H21.6667V102.916H108.333ZM108.333 16.2498C111.207 16.2498 113.962 17.3911 115.994 19.4228C118.025 21.4544 119.167 24.2099 119.167 27.0831V102.916C119.167 105.79 118.025 108.545 115.994 110.577C113.962 112.608 111.207 113.75 108.333 113.75H21.6667C18.7935 113.75 16.038 112.608 14.0063 110.577C11.9747 108.545 10.8333 105.79 10.8333 102.916V27.0831C10.8333 21.0706 15.7083 16.2498 21.6667 16.2498H108.333ZM70.4167 92.0831V81.2498H97.5V92.0831H70.4167ZM51.8917 70.4164L30.1708 48.7498H45.5L63.375 66.6248C65.4875 68.7373 65.4875 72.2039 63.375 74.3164L45.6083 92.0831H30.2792L51.8917 70.4164Z" fill="#FF7043"/>
</svg>

<svg width="130" height="130" fill="none" xmlns="http://www.w3.org/2000/svg"><path d="M108.333 102.916v-65H21.667v65h86.666zm0-86.666a10.834 10.834 0 0110.834 10.833v75.833a10.837 10.837 0 01-10.834 10.834H21.667a10.836 10.836 0 01-10.834-10.834V27.083c0-6.012 4.875-10.833 10.834-10.833h86.666zM70.417 92.083V81.25H97.5v10.833H70.417zM51.892 70.416L30.17 48.75H45.5l17.875 17.875c2.112 2.112 2.112 5.579 0 7.691L45.608 92.083H30.28l21.613-21.667z" fill="#FF7043"/></svg>
